X: 13319
T: Flanagan Meets O'Hanlon
R: barndance
M: 4/4
K: Cmajor
|:Bcdc cAGE|CDCA, B,CA,C|G,A,CD EAGE|DDDE DEGB|
Bcdc cAGE|CDCA, B,CA,C|G,A,CD EAGE|1 DDDE CDEG:|2 DDDE CG,A,C||
G,3A, CDEF|GAcG cBAG|AAAc AGEF|GcAE GEDE|
C2G,A, CDEF|GAcd edcA|ddde gdef|gaba gfed|
ccdc cAGE|CDCA, B,CA,C|G,A,CD EFGE|AAAB AEAB|
BccA GEAB|BccA GECA,|G,A,CD EAGE|DDDE CDEG||

